apex/img/step-item-icon1.svg

<svg width="111" height="90" viewBox="0 0 111 90" fill="none" xmlns="http://www.w3.org/2000/svg">
<path d="M103.191 27.5177H96.3115V34.3971H103.191V82.5529H6.8794V34.3971H55.0352V27.5177H6.8794C3.08003 27.5177 0 30.5977 0 34.3971V82.5529C0 86.3522 3.08003 89.4323 6.8794 89.4323H103.191C106.99 89.4323 110.07 86.3522 110.07 82.5529V34.3971C110.07 30.5977 106.99 27.5177 103.191 27.5177Z" fill="#E5A132"/>
<path d="M73.2313 67.7964C74.573 69.1302 76.7396 69.1302 78.0812 67.7964L84.9606 60.917C85.6172 60.2736 85.9887 59.3941 85.9925 58.4749V3.4397C85.9925 1.53991 84.4526 0 82.5529 0H68.7941C66.8943 0 65.3544 1.53991 65.3544 3.4397V58.4749C65.349 59.3892 65.708 60.2678 66.3519 60.917L73.2313 67.7964ZM72.2338 24.0779H79.1132V57.0646L75.6735 60.5043L72.2338 57.0646V24.0779Z" fill="#E5A132"/>
<path d="M27.5175 68.7941H58.4748V61.9147H20.6382C20.6382 65.714 23.7182 68.7941 27.5175 68.7941Z" fill="#E5A132"/>
<path d="M55.0352 55.035V48.1556H34.397C34.397 51.955 37.477 55.035 41.2764 55.035H55.0352Z" fill="#E5A132"/>
</svg>

<svg width="111" height="90" fill="none" xmlns="http://www.w3.org/2000/svg"><path d="M103.191 27.518h-6.88v6.88h6.88v48.155H6.879V34.397h48.156v-6.88H6.88A6.88 6.88 0 000 34.398v48.156c0 3.8 3.08 6.88 6.88 6.88h96.311a6.88 6.88 0 006.879-6.88V34.397c0-3.8-3.08-6.88-6.879-6.88z" fill="#E5A132"/><path d="M73.231 67.796a3.44 3.44 0 004.85 0l6.88-6.879a3.439 3.439 0 001.032-2.442V3.44c0-1.9-1.54-3.44-3.44-3.44H68.794a3.44 3.44 0 00-3.44 3.44v55.035a3.439 3.439 0 00.998 2.442l6.88 6.88zm-.997-43.718h6.88v32.987l-3.44 3.44-3.44-3.44V24.078zM27.517 68.794h30.958v-6.88H20.638c0 3.8 3.08 6.88 6.88 6.88zm27.518-13.759v-6.88H34.397c0 3.8 3.08 6.88 6.88 6.88h13.758z" fill="#E5A132"/></svg>
